X: 25214
T: Malfunction Junction
R: reel
M: 4/4
K: Adorian
|:eAAB GABG|A2 (3Bcd eA A2|G3B dGBd|e2 de ed (3Bcd|
eAAB GABG|A2 (3Bcd eA A2|G3B dGBd|e2 dB A2 (3Bcd:|
|:ea a2 gafg|ed (3Bcd eA A2|GAAG Bdcd|e2de ed (3Bcd|
ea a2 gafg|ed (3Bcd eA A2|G3B dGBd|e2 dB A2 (3Bcd:|

